!! 00000] TT[00
!! NN
!!!OTL: Gei Beijing shao feng xin
!!!ARE: Asia, China,ÿGansu, Hezheng
!! Ethnic Group: Han
!! I, 112
!!!SCT: C0035
!!!YEM: Copyright 1995, estate of Helmut Schaffrath.
**kern
*ICvox
*Ivox
*M2/4
*k[f#]
*G:
{8a
8dd
8dd
8a
=1
4.dd
8gg
=2
8ee
8dd
8cc
16b
16a
=3
4.g
8a}
=4
{4dd
8dd
8gg
=5
8ee
8dd
8cc
8a
=6
8cc
8a
8g
8d
=7
2g}
=8
{8.g
16a
8dd
8dd
=9
8.dd
16gg
8ee
8dd
=10
8.g
16a
8cc
8b
=11
8a
8cc
8a
8g}
=12
{16a
16g
4f#
8g
=13
8a
8cc
8cc
8e
=14
4.d
8g
=15
2d}
=16
{8dd
8a
8dd
8gg
=17
8dd
16cc
16b
8a
8g}
=18
{16a
16g
4f#
8g
=19
8a
8cc
8cc
8e
=20
4.d
8g
=21
2d}
==
!!!AGN: Xiaodiao, Fang fengzheng. Xin mingge
!! hat verschiedene Varianten, z.B. "jian jian hua"
!!!ONB: ESAC (Essen Associative Code) Database: CHINA
!!!AMT: simple duple
!!!AIN: vox
!!!EED: Helmut Schaffrath
!!!EEV: 1.0
*-
